src/img/confirmación-icono-outline.svg

<svg width="32" height="32" viewBox="0 0 32 32" fill="none" xmlns="http://www.w3.org/2000/svg">
<path d="M16 6C17.2344 6 18.3984 6.23438 19.4922 6.70312C20.5859 7.17188 21.5312 7.8125 22.3281 8.625C23.1406 9.4375 23.7812 10.3906 24.25 11.4844C24.7188 12.5781 24.9531 13.7422 24.9531 14.9766C24.9531 16.2109 24.7188 17.375 24.25 18.4688C23.7812 19.5625 23.1406 20.5156 22.3281 21.3281C21.5156 22.125 20.5625 22.7578 19.4688 23.2266C18.375 23.6953 17.2109 23.9297 15.9766 23.9297C14.7422 23.9297 13.5781 23.6953 12.4844 23.2266C11.3906 22.7578 10.4375 22.1172 9.625 21.3047C8.82812 20.4922 8.19531 19.5391 7.72656 18.4453C7.25781 17.3516 7.02344 16.1875 7.02344 14.9531C7.02344 14.0469 7.14844 13.1797 7.39844 12.3516C7.66406 11.5078 8.03125 10.7266 8.5 10.0078C8.98438 9.28906 9.5625 8.64844 10.2344 8.08594C10.9062 7.52344 11.6562 7.0625 12.4844 6.70312C13.0469 6.46875 13.625 6.29688 14.2188 6.1875C14.8125 6.0625 15.4062 6 16 6ZM16 4.99219C14.625 4.99219 13.3281 5.25781 12.1094 5.78906C10.8906 6.30469 9.82812 7.01562 8.92188 7.92188C8.01562 8.82812 7.30469 9.89062 6.78906 11.1094C6.25781 12.3281 5.99219 13.625 5.99219 15C5.99219 16.375 6.25781 17.6719 6.78906 18.8906C7.30469 20.1094 8.01562 21.1719 8.92188 22.0781C9.82812 22.9844 10.8906 23.6953 12.1094 24.2109C13.3281 24.7422 14.625 25.0078 16 25.0078C17.375 25.0078 18.6719 24.7422 19.8906 24.2109C21.1094 23.6953 22.1719 22.9844 23.0781 22.0781C23.9844 21.1719 24.6953 20.1094 25.2109 18.8906C25.7422 17.6719 26.0078 16.375 26.0078 15C26.0078 13.625 25.7422 12.3281 25.2109 11.1094C24.6953 9.89062 23.9844 8.82812 23.0781 7.92188C22.1719 7.01562 21.1094 6.30469 19.8906 5.78906C18.6719 5.25781 17.375 4.99219 16 4.99219ZM14.5234 18.9844C14.4609 18.9844 14.3984 18.9766 14.3359 18.9609C14.2734 18.9297 14.2188 18.8906 14.1719 18.8438L11.1719 15.8438C11.0625 15.75 11 15.6406 10.9844 15.5156C10.9844 15.375 11.0312 15.25 11.125 15.1406C11.2188 15.0469 11.3359 15 11.4766 15C11.6172 14.9844 11.7344 15.0234 11.8281 15.1172C11.8438 15.1172 11.8516 15.125 11.8516 15.1406C11.8516 15.1406 11.8594 15.1406 11.875 15.1406L14.5234 17.7891L20.2422 12.1406C20.3516 12.0469 20.4688 12 20.5938 12C20.7344 12 20.8516 12.0547 20.9453 12.1641C21.0391 12.2578 21.0859 12.375 21.0859 12.5156C21.0859 12.6406 21.0391 12.75 20.9453 12.8438L14.875 18.8438C14.8281 18.8906 14.7734 18.9297 14.7109 18.9609C14.6484 18.9766 14.5859 18.9844 14.5234 18.9844Z" fill="white"/>
</svg>

<svg width="32" height="32" fill="none" xmlns="http://www.w3.org/2000/svg"><path d="M16 6c1.234 0 2.398.234 3.492.703a8.756 8.756 0 012.836 1.922 9.03 9.03 0 011.922 2.86 8.77 8.77 0 01.703 3.492 8.77 8.77 0 01-.703 3.492 9.031 9.031 0 01-1.922 2.86 9.235 9.235 0 01-2.86 1.898 8.773 8.773 0 01-3.491.703 8.772 8.772 0 01-3.493-.703 9.03 9.03 0 01-2.859-1.922 9.233 9.233 0 01-1.898-2.86 8.771 8.771 0 01-.704-3.492c0-.906.125-1.773.375-2.601A9.477 9.477 0 018.5 10.008a9.205 9.205 0 013.984-3.305 8.502 8.502 0 011.735-.516A8.624 8.624 0 0116 6zm0-1.008a9.63 9.63 0 00-3.89.797 9.929 9.929 0 00-3.188 2.133 9.93 9.93 0 00-2.133 3.187A9.63 9.63 0 005.992 15a9.63 9.63 0 00.797 3.89 9.928 9.928 0 002.133 3.188 9.928 9.928 0 003.187 2.133 9.63 9.63 0 003.891.797 9.63 9.63 0 003.89-.797 9.927 9.927 0 003.188-2.133 9.927 9.927 0 002.133-3.187A9.63 9.63 0 0026.008 15a9.63 9.63 0 00-.797-3.89 9.928 9.928 0 00-2.133-3.188 9.928 9.928 0 00-3.187-2.133A9.63 9.63 0 0016 4.992zm-1.477 13.992a.767.767 0 01-.187-.023.626.626 0 01-.164-.117l-3-3a.509.509 0 01-.188-.328.56.56 0 01.141-.375.477.477 0 01.352-.141.408.408 0 01.351.117c.016 0 .024.008.024.024h.023l2.648 2.648 5.72-5.648a.532.532 0 01.35-.141c.141 0 .259.055.352.164.094.094.14.211.14.352a.45.45 0 01-.14.328l-6.07 6a.627.627 0 01-.164.117.767.767 0 01-.188.023z" fill="#fff"/></svg>
